X:1
T:Johnny Come Down To Hilo
M:2/4
L:1/8
K:Eb
 z2 z e| c/2c/2 c/2c/2 Be| cc c e/2d/2| cB G/2F/2 E/2F/2| GE CB,| E/2E/2 E E3/2 G/2|\
 c B3| G2 F2| E3 e| c B2 e| c B2 e| cB G E/2F/2| GE CB,| E/2E/2 E E3/2 G/2|\
 c B3| G2 F2| E3 z|
